X: 16545
T: Halls Lilla Vals
R: waltz
M: 3/4
K: Dmajor
AG|:F3A df|a3g ef|dc ed cB|A2 F2 D2|
[1 G3A BG|E2 C2 A,2|D3E FG|A2 AB AG:|
[2 G3B dB|Ad fe dc|BA Ac Bc !coda!|"D.C. al Coda"d4||!coda!d6||
|:D3F Ad|cf d2 cA|B3c de|fb a2 ag|
f3g fe|dc ed cB|1 ,3 AB AG FE|F4 E2:|2 ,4 (3Ace a2 c2|d4:|

